; generated by PrusaSlicer 2.5.0 on 2023-01-17 at 16:29:17 UTC


;
;
; 

; external perimeters extrusion width = 0.60mm
; perimeters extrusion width = 0.50mm
; infill extrusion width = 0.50mm
; solid infill extrusion width = 0.50mm
; top infill extrusion width = 0.45mm
; first layer extrusion width = 0.42mm

M73 P0 R12
M73 Q0 S12
M201 X1000 Y1000 Z200 E5000 ; sets maximum accelerations, mm/sec^2
M203 X200 Y200 Z12 E120 ; sets maximum feedrates, mm / sec
M204 P1250 R1250 T1250 ; sets acceleration (P, T) and retract acceleration (R), mm/sec^2
M205 X8.00 Y8.00 Z0.40 E4.50 ; sets the jerk limits, mm/sec
M205 S0 T0 ; sets the minimum extruding and travel feed rate, mm/sec
M107
;TYPE:Custom
M862.3 P "MK3S" ; printer model check
M862.1 P0.4 ; nozzle diameter check
M115 U3.11.0 ; tell printer latest fw version
G90 ; use absolute coordinates
M83 ; extruder relative mode
M104 S215 ; set extruder temp
M140 S60 ; set bed temp
M190 S60 ; wait for bed temp
M109 S215 ; wait for extruder temp
G28 W ; home all without mesh bed level
G80 ; mesh bed leveling

G1 Z0.2 F720
G1 Y-3 F1000 ; go outside print area
G92 E0
G1 X60 E9 F1000 ; intro line
G1 X100 E12.5 F1000 ; intro line

G92 E0
M221 S95

; Don't change E values below. Excessive value can damage the printer.

M907 E538 ; set extruder motor current
G21 ; set units to millimeters
G90 ; use absolute coordinates
M83 ; use relative distances for extrusion
M900 K0.05 ; Filament gcode LA 1.5
M900 K30 ; Filament gcode LA 1.0
M107
;LAYER_CHANGE
;Z:0.2
;HEIGHT:0.2
;BEFORE_LAYER_CHANGE
G92 E0.0
;0.2


G1 E-.8 F2100
G1 Z.4 F720
;AFTER_LAYER_CHANGE
;0.2
G1 X90.715 Y78.583 F10800
G1 Z.2 F720
G1 E.8 F2100
M204 S800
;TYPE:Skirt/Brim
;WIDTH:0.42
G1 F1200
G1 X91.76 Y77.707 E.04278
G1 X92.7 Y77.513 E.03008
M73 Q1 S12
G1 X157.3 Y77.513 E2.02549
G1 X158.607 Y77.905 E.04278
M73 P1 R11
G1 X159.483 Y78.95 E.04278
G1 X159.677 Y79.89 E.03008
G1 X159.677 Y130.11 E1.57461
G1 X159.285 Y131.417 E.04278
G1 X158.24 Y132.293 E.04278
G1 X157.3 Y132.487 E.03008
G1 X92.7 Y132.487 E2.02549
G1 X91.393 Y132.095 E.04278
M73 P2 R11
M73 Q2 S12
G1 X90.517 Y131.05 E.04278
G1 X90.323 Y130.11 E.03008
G1 X90.323 Y79.89 E1.57461
G1 X90.697 Y78.64 E.0409
M204 S1000
; printing object leddy.stl id:0 copy 0
;WIPE_START
M73 Q2 S11
G1 F8640
G1 X91.76 Y77.707 E-.32671
G1 X92.7 Y77.513 E-.22155
G1 X93.617 Y77.513 E-.21174
;WIPE_END
G1 E-.04 F2100
G1 Z.6 F720
G1 X156.513 Y129.323 F10800
G1 Z.2 F720
G1 E.8 F2100
M204 S800
;TYPE:Perimeter
;WIDTH:0.419999
G1 F1200
G1 X93.487 Y129.323 E1.97613
G1 X93.487 Y80.677 E1.52525
M73 P3 R11
M73 Q3 S11
G1 X156.513 Y80.677 E1.97613
G1 X156.513 Y129.263 E1.52337
M204 S1000
G1 X156.89 Y129.7 F10800
M204 S800
;TYPE:External perimeter
M73 P4 R11
M73 Q4 S11
G1 F1200
G1 X93.11 Y129.7 E1.99977
G1 X93.11 Y80.3 E1.5489
G1 X156.89 Y80.3 E1.99977
M73 P5 R11
M73 Q5 S11
G1 X156.89 Y129.64 E1.54702
M204 S1000
G1 X156.5 Y129.613 F10800
;WIPE_START
G1 F8640
G1 X153.599 Y129.643 E-.76
;WIPE_END
G1 E-.04 F2100
G1 Z.6 F720
G1 X119.971 Y122.673 F10800
G1 Z.2 F720
G1 E.8 F2100
M204 S800
;TYPE:Perimeter
G1 F1200
G1 X97.479 Y122.677 E.70523
G1 X97.269 Y122.637 E.00668
M73 P6 R11
M73 Q6 S11
G1 X97.03 Y122.455 E.00943
G1 X96.921 Y122.209 E.00843
G1 X96.913 Y122.111 E.00308
G1 X96.913 Y87.669 E1.07993
G1 X96.943 Y87.488 E.00575
G1 X97.134 Y87.22 E.01031
G1 X97.381 Y87.111 E.00846
G1 X97.479 Y87.103 E.00308
G1 X119.921 Y87.103 E.70368
G1 X120.156 Y87.154 E.00753
G1 X120.335 Y87.283 E.00691
G1 X120.474 Y87.547 E.00935
G1 X120.487 Y87.669 E.00384
G1 X120.487 Y122.111 E1.07993
G1 X120.433 Y122.353 E.00776
G1 X120.247 Y122.574 E.00905
G1 X120.03 Y122.664 E.00738
M204 S1000
G1 X119.921 Y122.3 F10800
M204 S800
;TYPE:External perimeter
G1 F1200
G1 X97.479 Y122.3 E.70368
G1 X97.329 Y122.226 E.00523
G1 X97.29 Y122.111 E.0038
G1 X97.29 Y87.669 E1.07993
G1 X97.364 Y87.519 E.00523
M73 P7 R11
M73 Q7 S11
G1 X97.479 Y87.48 E.0038
G1 X119.921 Y87.48 E.70368
G1 X120.059 Y87.54 E.00471
G1 X120.11 Y87.669 E.00433
G1 X120.11 Y122.111 E1.07993
G1 X120.057 Y122.243 E.00445
G1 X119.977 Y122.277 E.00272
M204 S1000
G1 X119.818 Y122.686 F10800
;WIPE_START
G1 F8640
G1 X116.685 Y122.28 E-.76
;WIPE_END
G1 E-.04 F2100
G1 Z.6 F720
G1 X152.3 Y87.122 F10800
G1 Z.2 F720
G1 E.8 F2100
M204 S800
;TYPE:Perimeter
G1 F1200
G1 X152.479 Y87.165 E.00579
G1 X152.69 Y87.352 E.00885
G1 X152.787 Y87.669 E.01037
G1 X152.787 Y122.111 E1.07993
G1 X152.76 Y122.286 E.00553
G1 X152.58 Y122.549 E.01
G1 X152.319 Y122.669 E.00899
G1 X152.221 Y122.677 E.00308
G1 X129.779 Y122.677 E.70368
G1 X129.55 Y122.629 E.00733
M73 P8 R11
M73 Q8 S11
G1 X129.373 Y122.506 E.00675
G1 X129.245 Y122.3 E.00758
G1 X129.213 Y122.111 E.00601
G1 X129.213 Y87.669 E1.07993
G1 X129.216 Y87.607 E.00194
G1 X129.304 Y87.361 E.00818
G1 X129.445 Y87.212 E.00644
G1 X129.681 Y87.111 E.00803
G1 X129.779 Y87.103 E.00308
G1 X152.242 Y87.108 E.70432
M204 S1000
G1 X152.221 Y87.48 F10800
M204 S800
;TYPE:External perimeter
G1 F1200
G1 X152.345 Y87.526 E.00412
G1 X152.41 Y87.669 E.00493
G1 X152.41 Y122.111 E1.07993
G1 X152.341 Y122.257 E.00506
G1 X152.221 Y122.3 E.00398
G1 X129.779 Y122.3 E.70368
G1 X129.643 Y122.243 E.0046
G1 X129.59 Y122.111 E.00445
G1 X129.59 Y87.669 E1.07993
G1 X129.667 Y87.516 E.00536
M73 P9 R11
M73 Q9 S11
G1 X129.779 Y87.48 E.00367
G1 X152.161 Y87.48 E.7018
M204 S1000
G1 X152.312 Y87.385 F10800
;WIPE_START
G1 F8640
G1 X152.345 Y87.526 E-.04357
G1 X152.41 Y87.669 E-.03628
G1 X152.41 Y90.614 E-.68015
;WIPE_END
G1 E-.04 F2100
G1 Z.6 F720
G1 X156.4 Y81.555 F10800
G1 Z.2 F720
G1 E.8 F2100
M204 S800
;TYPE:Solid infill
;WIDTH:0.421271
G1 F1200
G1 X155.805 Y80.96 E.02648
G1 X155.269 Y80.96 E.01683
G1 X156.23 Y81.921 E.04274
G1 X156.23 Y82.456 E.01683
G1 X154.734 Y80.96 E.06655
G1 X154.199 Y80.96 E.01683
G1 X156.23 Y82.991 E.09035
G1 X156.23 Y83.526 E.01683
G1 X153.664 Y80.96 E.11416
G1 X153.129 Y80.96 E.01683
G1 X156.23 Y84.061 E.13796
G1 X156.23 Y84.596 E.01683
G1 X152.594 Y80.96 E.16177
G1 X152.059 Y80.96 E.01683
G1 X156.23 Y85.131 E.18558
G1 X156.23 Y85.666 E.01683
G1 X151.524 Y80.96 E.20938
G1 X150.989 Y80.96 E.01683
G1 X156.23 Y86.201 E.23319
G1 X156.23 Y86.736 E.01683
M73 P9 R10
G1 X150.454 Y80.96 E.25699
G1 X149.919 Y80.96 E.01683
G1 X156.23 Y87.271 E.2808
G1 X156.23 Y87.806 E.01683
G1 X149.384 Y80.96 E.30461
G1 X148.849 Y80.96 E.01683
G1 X156.23 Y88.341 E.32841
G1 X156.23 Y88.876 E.01683
G1 X148.314 Y80.96 E.35222
G1 X147.778 Y80.96 E.01683
M73 P10 R10
G1 X156.23 Y89.412 E.37602
G1 X156.23 Y89.947 E.01683
M73 Q10 S11
G1 X147.243 Y80.96 E.39983
G1 X146.708 Y80.96 E.01683
G1 X156.23 Y90.482 E.42363
G1 X156.23 Y91.017 E.01683
G1 X153.07 Y87.856 E.1406
G1 X153.07 Y88.392 E.01683
G1 X156.23 Y91.552 E.1406
G1 X156.23 Y92.087 E.01683
G1 X153.07 Y88.927 E.1406
G1 X153.07 Y89.462 E.01683
G1 X156.23 Y92.622 E.1406
G1 X156.23 Y93.157 E.01683
G1 X153.07 Y89.997 E.1406
G1 X153.07 Y90.532 E.01683
G1 X156.23 Y93.692 E.1406
G1 X156.23 Y94.227 E.01683
G1 X153.07 Y91.067 E.1406
G1 X153.07 Y91.602 E.01683
G1 X156.23 Y94.762 E.1406
M73 Q10 S10
G1 X156.23 Y95.297 E.01683
G1 X153.07 Y92.137 E.1406
G1 X153.07 Y92.672 E.01683
G1 X156.23 Y95.832 E.1406
G1 X156.23 Y96.367 E.01683
G1 X153.07 Y93.207 E.1406
G1 X153.07 Y93.742 E.01683
G1 X156.23 Y96.902 E.1406
G1 X156.23 Y97.438 E.01683
G1 X153.07 Y94.277 E.1406
G1 X153.07 Y94.812 E.01683
G1 X156.23 Y97.973 E.1406
G1 X156.23 Y98.508 E.01683
G1 X153.07 Y95.347 E.1406
G1 X153.07 Y95.883 E.01683
G1 X156.23 Y99.043 E.1406
G1 X156.23 Y99.578 E.01683
G1 X153.07 Y96.418 E.1406
G1 X153.07 Y96.953 E.01683
G1 X156.23 Y100.113 E.1406
G1 X156.23 Y100.648 E.01683
G1 X153.07 Y97.488 E.1406
G1 X153.07 Y98.023 E.01683
G1 X156.23 Y101.183 E.1406
G1 X156.23 Y101.718 E.01683
M73 P11 R10
G1 X153.07 Y98.558 E.1406
G1 X153.07 Y99.093 E.01683
M73 Q11 S10
G1 X156.23 Y102.253 E.1406
G1 X156.23 Y102.788 E.01683
G1 X153.07 Y99.628 E.1406
G1 X153.07 Y100.163 E.01683
G1 X156.23 Y103.323 E.1406
G1 X156.23 Y103.858 E.01683
G1 X153.07 Y100.698 E.1406
G1 X153.07 Y101.233 E.01683
G1 X156.23 Y104.393 E.1406
G1 X156.23 Y104.929 E.01683
G1 X153.07 Y101.768 E.1406
G1 X153.07 Y102.303 E.01683
G1 X156.23 Y105.464 E.1406
G1 X156.23 Y105.999 E.01683
G1 X153.07 Y102.838 E.1406
G1 X153.07 Y103.373 E.01683
G1 X156.23 Y106.534 E.1406
G1 X156.23 Y107.069 E.01683
G1 X153.07 Y103.909 E.1406
G1 X153.07 Y104.444 E.01683
G1 X156.23 Y107.604 E.1406
G1 X156.23 Y108.139 E.01683
G1 X153.07 Y104.979 E.1406
G1 X153.07 Y105.514 E.01683
G1 X156.23 Y108.674 E.1406
G1 X156.23 Y109.209 E.01683
G1 X153.07 Y106.049 E.1406
G1 X153.07 Y106.584 E.01683
G1 X156.23 Y109.744 E.1406
G1 X156.23 Y110.279 E.01683
G1 X153.07 Y107.119 E.1406
G1 X153.07 Y107.654 E.01683
G1 X156.23 Y110.814 E.1406
G1 X156.23 Y111.349 E.01683
G1 X153.07 Y108.189 E.1406
G1 X153.07 Y108.724 E.01683
G1 X156.23 Y111.884 E.1406
G1 X156.23 Y112.419 E.01683
G1 X153.07 Y109.259 E.1406
G1 X153.07 Y109.794 E.01683
G1 X156.23 Y112.955 E.1406
G1 X156.23 Y113.49 E.01683
G1 X153.07 Y110.329 E.1406
G1 X153.07 Y110.864 E.01683
G1 X156.23 Y114.025 E.1406
G1 X156.23 Y114.56 E.01683
G1 X153.07 Y111.4 E.1406
G1 X153.07 Y111.935 E.01683
G1 X156.23 Y115.095 E.1406
G1 X156.23 Y115.63 E.01683
G1 X153.07 Y112.47 E.1406
G1 X153.07 Y113.005 E.01683
G1 X156.23 Y116.165 E.1406
G1 X156.23 Y116.7 E.01683
M73 P12 R10
G1 X153.07 Y113.54 E.1406
G1 X153.07 Y114.075 E.01683
M73 Q12 S10
G1 X156.23 Y117.235 E.1406
G1 X156.23 Y117.77 E.01683
G1 X153.07 Y114.61 E.1406
G1 X153.07 Y115.145 E.01683
G1 X156.23 Y118.305 E.1406
G1 X156.23 Y118.84 E.01683
G1 X153.07 Y115.68 E.1406
G1 X153.07 Y116.215 E.01683
G1 X156.23 Y119.375 E.1406
G1 X156.23 Y119.91 E.01683
G1 X153.07 Y116.75 E.1406
G1 X153.07 Y117.285 E.01683
G1 X156.23 Y120.446 E.1406
G1 X156.23 Y120.981 E.01683
G1 X153.07 Y117.82 E.1406
G1 X153.07 Y118.355 E.01683
G1 X156.23 Y121.516 E.1406
G1 X156.23 Y122.051 E.01683
G1 X153.07 Y118.89 E.1406
G1 X153.07 Y119.426 E.01683
G1 X156.23 Y122.586 E.1406
G1 X156.23 Y123.121 E.01683
G1 X153.07 Y119.961 E.1406
G1 X153.07 Y120.496 E.01683
G1 X156.23 Y123.656 E.1406
G1 X156.23 Y124.191 E.01683
G1 X153.07 Y121.031 E.1406
G1 X153.07 Y121.566 E.01683
G1 X156.23 Y124.726 E.1406
G1 X156.23 Y125.261 E.01683
G1 X153.07 Y122.101 E.1406
G1 X153.03 Y122.373 E.00865
G1 X152.956 Y122.522 E.00523
G1 X156.23 Y125.796 E.14569
G1 X156.23 Y126.331 E.01683
G1 X152.703 Y122.804 E.15692
G1 X152.587 Y122.878 E.00432
G1 X152.418 Y122.937 E.00564
G1 X152.313 Y122.95 E.00331
G1 X156.23 Y126.866 E.17426
G1 X156.23 Y127.401 E.01683
G1 X151.789 Y122.96 E.19761
G1 X151.254 Y122.96 E.01683
G1 X156.23 Y127.936 E.22142
G1 X156.23 Y128.472 E.01683
G1 X150.718 Y122.96 E.24522
G1 X150.183 Y122.96 E.01683
G1 X156.23 Y129.007 E.26903
G1 X156.23 Y129.04 E.00105
G1 X155.729 Y129.04 E.01578
G1 X149.648 Y122.96 E.27052
G1 X149.113 Y122.96 E.01683
M73 P13 R10
G1 X155.193 Y129.04 E.27052
G1 X154.658 Y129.04 E.01683
M73 Q13 S10
G1 X148.578 Y122.96 E.27052
G1 X148.043 Y122.96 E.01683
G1 X154.123 Y129.04 E.27052
G1 X153.588 Y129.04 E.01683
G1 X147.508 Y122.96 E.27052
G1 X146.973 Y122.96 E.01683
G1 X153.053 Y129.04 E.27052
G1 X152.518 Y129.04 E.01683
G1 X146.438 Y122.96 E.27052
G1 X145.903 Y122.96 E.01683
G1 X151.983 Y129.04 E.27052
G1 X151.448 Y129.04 E.01683
G1 X145.368 Y122.96 E.27052
G1 X144.833 Y122.96 E.01683
G1 X150.913 Y129.04 E.27052
G1 X150.378 Y129.04 E.01683
G1 X144.298 Y122.96 E.27052
G1 X143.763 Y122.96 E.01683
G1 X149.843 Y129.04 E.27052
G1 X149.308 Y129.04 E.01683
G1 X143.227 Y122.96 E.27052
G1 X142.692 Y122.96 E.01683
G1 X148.773 Y129.04 E.27052
G1 X148.238 Y129.04 E.01683
G1 X142.157 Y122.96 E.27052
G1 X141.622 Y122.96 E.01683
G1 X147.703 Y129.04 E.27052
G1 X147.167 Y129.04 E.01683
M73 P14 R10
G1 X141.087 Y122.96 E.27052
G1 X140.552 Y122.96 E.01683
M73 Q14 S10
G1 X146.632 Y129.04 E.27052
G1 X146.097 Y129.04 E.01683
G1 X140.017 Y122.96 E.27052
G1 X139.482 Y122.96 E.01683
G1 X145.562 Y129.04 E.27052
G1 X145.027 Y129.04 E.01683
G1 X138.947 Y122.96 E.27052
G1 X138.412 Y122.96 E.01683
G1 X144.492 Y129.04 E.27052
G1 X143.957 Y129.04 E.01683
G1 X137.877 Y122.96 E.27052
G1 X137.342 Y122.96 E.01683
G1 X143.422 Y129.04 E.27052
G1 X142.887 Y129.04 E.01683
G1 X136.807 Y122.96 E.27052
G1 X136.272 Y122.96 E.01683
G1 X142.352 Y129.04 E.27052
G1 X141.817 Y129.04 E.01683
G1 X135.737 Y122.96 E.27052
G1 X135.201 Y122.96 E.01683
G1 X141.282 Y129.04 E.27052
G1 X140.747 Y129.04 E.01683
G1 X134.666 Y122.96 E.27052
G1 X134.131 Y122.96 E.01683
G1 X140.212 Y129.04 E.27052
G1 X139.676 Y129.04 E.01683
G1 X133.596 Y122.96 E.27052
G1 X133.061 Y122.96 E.01683
G1 X139.141 Y129.04 E.27052
G1 X138.606 Y129.04 E.01683
M73 P15 R10
G1 X132.526 Y122.96 E.27052
G1 X131.991 Y122.96 E.01683
M73 Q15 S10
G1 X138.071 Y129.04 E.27052
G1 X137.536 Y129.04 E.01683
G1 X131.456 Y122.96 E.27052
G1 X130.921 Y122.96 E.01683
G1 X137.001 Y129.04 E.27052
G1 X136.466 Y129.04 E.01683
G1 X130.216 Y122.79 E.27807
M204 S1000
;WIPE_START
G1 F8640
G1 X132.544 Y125.118 E-.76
;WIPE_END
G1 E-.04 F2100
G1 Z.6 F720
G1 X152.203 Y86.99 F10800
G1 Z.2 F720
G1 E.8 F2100
M204 S800
G1 F1200
G1 X146.173 Y80.96 E.26828
G1 X145.638 Y80.96 E.01683
G1 X151.498 Y86.82 E.26073
G1 X150.963 Y86.82 E.01683
G1 X145.103 Y80.96 E.26073
G1 X144.568 Y80.96 E.01683
G1 X150.428 Y86.82 E.26073
G1 X149.893 Y86.82 E.01683
G1 X144.033 Y80.96 E.26073
G1 X143.498 Y80.96 E.01683
G1 X149.358 Y86.82 E.26073
G1 X148.823 Y86.82 E.01683
G1 X142.963 Y80.96 E.26073
G1 X142.428 Y80.96 E.01683
G1 X148.288 Y86.82 E.26073
G1 X147.753 Y86.82 E.01683
G1 X141.893 Y80.96 E.26073
G1 X141.358 Y80.96 E.01683
M73 P16 R10
G1 X147.218 Y86.82 E.26073
G1 X146.683 Y86.82 E.01683
M73 Q16 S10
G1 X140.823 Y80.96 E.26073
G1 X140.288 Y80.96 E.01683
G1 X146.148 Y86.82 E.26073
G1 X145.613 Y86.82 E.01683
G1 X139.752 Y80.96 E.26073
G1 X139.217 Y80.96 E.01683
G1 X145.078 Y86.82 E.26073
G1 X144.543 Y86.82 E.01683
G1 X138.682 Y80.96 E.26073
G1 X138.147 Y80.96 E.01683
G1 X144.007 Y86.82 E.26073
G1 X143.472 Y86.82 E.01683
G1 X137.612 Y80.96 E.26073
G1 X137.077 Y80.96 E.01683
G1 X142.937 Y86.82 E.26073
G1 X142.402 Y86.82 E.01683
G1 X136.542 Y80.96 E.26073
G1 X136.007 Y80.96 E.01683
G1 X141.867 Y86.82 E.26073
G1 X141.332 Y86.82 E.01683
G1 X135.472 Y80.96 E.26073
G1 X134.937 Y80.96 E.01683
G1 X140.797 Y86.82 E.26073
G1 X140.262 Y86.82 E.01683
G1 X134.402 Y80.96 E.26073
G1 X133.867 Y80.96 E.01683
G1 X139.727 Y86.82 E.26073
G1 X139.192 Y86.82 E.01683
G1 X133.332 Y80.96 E.26073
G1 X132.797 Y80.96 E.01683
M73 P17 R10
G1 X138.657 Y86.82 E.26073
G1 X138.122 Y86.82 E.01683
G1 X132.261 Y80.96 E.26073
M73 Q17 S10
G1 X131.726 Y80.96 E.01683
G1 X137.587 Y86.82 E.26073
G1 X137.052 Y86.82 E.01683
G1 X131.191 Y80.96 E.26073
G1 X130.656 Y80.96 E.01683
G1 X136.517 Y86.82 E.26073
G1 X135.981 Y86.82 E.01683
G1 X130.121 Y80.96 E.26073
G1 X129.586 Y80.96 E.01683
G1 X135.446 Y86.82 E.26073
G1 X134.911 Y86.82 E.01683
G1 X129.051 Y80.96 E.26073
G1 X128.516 Y80.96 E.01683
G1 X134.376 Y86.82 E.26073
G1 X133.841 Y86.82 E.01683
G1 X127.981 Y80.96 E.26073
G1 X127.446 Y80.96 E.01683
G1 X133.306 Y86.82 E.26073
G1 X132.771 Y86.82 E.01683
G1 X126.911 Y80.96 E.26073
G1 X126.376 Y80.96 E.01683
G1 X132.236 Y86.82 E.26073
G1 X131.701 Y86.82 E.01683
G1 X125.841 Y80.96 E.26073
G1 X125.306 Y80.96 E.01683
M73 P17 R9
G1 X131.166 Y86.82 E.26073
G1 X130.631 Y86.82 E.01683
G1 X124.771 Y80.96 E.26073
G1 X124.235 Y80.96 E.01683
M73 P18 R9
G1 X130.096 Y86.82 E.26073
G1 X129.773 Y86.82 E.01014
G1 X129.584 Y86.843 E.00601
G1 X123.7 Y80.96 E.26177
G1 X123.165 Y80.96 E.01683
M73 Q18 S10
G1 X129.231 Y87.025 E.26985
G1 X129.155 Y87.092 E.00317
G1 X129 Y87.33 E.00894
G1 X122.63 Y80.96 E.28342
G1 X122.095 Y80.96 E.01683
G1 X128.93 Y87.795 E.30409
G1 X128.93 Y88.33 E.01683
G1 X121.56 Y80.96 E.3279
G1 X121.025 Y80.96 E.01683
G1 X128.93 Y88.865 E.35171
G1 X128.93 Y89.4 E.01683
G1 X120.49 Y80.96 E.37551
G1 X119.955 Y80.96 E.01683
G1 X128.93 Y89.935 E.39932
G1 X128.93 Y90.47 E.01683
G1 X119.42 Y80.96 E.42312
G1 X118.885 Y80.96 E.01683
M73 Q18 S9
G1 X128.93 Y91.005 E.44693
G1 X128.93 Y91.54 E.01683
G1 X118.35 Y80.96 E.47074
G1 X117.815 Y80.96 E.01683
G1 X128.93 Y92.075 E.49454
G1 X128.93 Y92.61 E.01683
M73 P19 R9
